; HEADER_BLOCK_START
; generated by OrcaSlicer 2.0.0 on 2024-05-12 at 15:59:06
; total layer number: 2
; filament_density: 1.04
; filament_diameter: 1.75
; max_z_height: 0.48
; HEADER_BLOCK_END

; THUMBNAIL_BLOCK_START

;
; THUMBNAIL_BLOCK_END

; external perimeters extrusion width = 0.40mm
; perimeters extrusion width = 0.40mm
; infill extrusion width = 0.45mm
; solid infill extrusion width = 0.40mm
; top infill extrusion width = 0.45mm
; first layer extrusion width = 0.50mm

; external perimeters extrusion width = 0.40mm
; perimeters extrusion width = 0.40mm
; infill extrusion width = 0.45mm
; solid infill extrusion width = 0.40mm
; top infill extrusion width = 0.45mm
; first layer extrusion width = 0.50mm

; external perimeters extrusion width = 0.40mm
; perimeters extrusion width = 0.40mm
; infill extrusion width = 0.45mm
; solid infill extrusion width = 0.40mm
; top infill extrusion width = 0.45mm
; first layer extrusion width = 0.50mm

; external perimeters extrusion width = 0.40mm
; perimeters extrusion width = 0.40mm
; infill extrusion width = 0.45mm
; solid infill extrusion width = 0.40mm
; top infill extrusion width = 0.45mm
; first layer extrusion width = 0.50mm

; EXECUTABLE_BLOCK_START
EXCLUDE_OBJECT_DEFINE NAME=white_extrude_id_0_copy_0 CENTER=217.488,214.5 POLYGON=[[173,212.892],[176.232,210.98],[192.793,210.817],[228.292,210.98],[260.536,212.775],[260.69,212.79],[260.828,212.813],[260.955,212.844],[261.073,212.882],[261.182,212.928],[261.282,212.98],[261.375,213.04],[261.461,213.106],[261.548,213.189],[261.628,213.28],[261.7,213.381],[261.74,213.447],[261.776,213.515],[261.829,213.634],[261.873,213.763],[261.912,213.912],[261.942,214.078],[261.963,214.263],[261.973,214.424],[261.977,214.595],[261.977,218],[251.738,218.181],[251.617,218.183],[192.555,218.183],[180.255,218.142],[173,218],[173,212.892]]
EXCLUDE_OBJECT_DEFINE NAME=white_extrude_id_1_copy_0 CENTER=81.4883,214.5 POLYGON=[[37,212.892],[40.232,210.98],[56.7934,210.817],[92.2916,210.98],[124.536,212.775],[124.69,212.79],[124.828,212.813],[124.955,212.844],[125.073,212.882],[125.182,212.928],[125.282,212.98],[125.375,213.04],[125.461,213.106],[125.548,213.189],[125.628,213.28],[125.7,213.381],[125.74,213.447],[125.776,213.515],[125.829,213.634],[125.873,213.763],[125.912,213.912],[125.942,214.078],[125.963,214.263],[125.973,214.424],[125.977,214.595],[125.977,218],[115.738,218.181],[115.617,218.183],[56.5549,218.183],[44.255,218.142],[37,218],[37,212.892]]
EXCLUDE_OBJECT_DEFINE NAME=white_extrude_id_2_copy_0 CENTER=81.4883,78.5 POLYGON=[[37,76.8924],[40.232,74.9797],[56.7934,74.8169],[92.2916,74.9797],[124.536,76.7752],[124.69,76.7898],[124.828,76.8127],[124.955,76.8436],[125.073,76.882],[125.182,76.9276],[125.282,76.9803],[125.375,77.0399],[125.461,77.1064],[125.548,77.1886],[125.628,77.28],[125.7,77.3811],[125.74,77.4465],[125.776,77.5153],[125.829,77.6337],[125.873,77.7631],[125.912,77.9117],[125.942,78.0779],[125.963,78.2633],[125.973,78.4244],[125.977,78.5947],[125.977,82],[115.738,82.1812],[115.617,82.1831],[56.5549,82.1831],[44.255,82.1424],[37,82],[37,76.8924]]
EXCLUDE_OBJECT_DEFINE NAME=white_extrude_id_3_copy_0 CENTER=217.488,78.5 POLYGON=[[173,76.8924],[176.232,74.9797],[192.793,74.8169],[228.292,74.9797],[260.536,76.7752],[260.69,76.7898],[260.828,76.8127],[260.955,76.8436],[261.073,76.882],[261.182,76.9276],[261.282,76.9803],[261.375,77.0399],[261.461,77.1064],[261.548,77.1886],[261.628,77.28],[261.7,77.3811],[261.74,77.4465],[261.776,77.5153],[261.829,77.6337],[261.873,77.7631],[261.912,77.9117],[261.942,78.0779],[261.963,78.2633],[261.973,78.4244],[261.977,78.5947],[261.977,82],[251.738,82.1812],[251.617,82.1831],[192.555,82.1831],[180.255,82.1424],[173,82],[173,76.8924]]
M73 P0 R3
;TYPE:Custom
PRINT_START EXTRUDER=255 BED=105
; You can use following code instead if your PRINT_START macro support Chamber and print area bedmesh
; PRINT_START EXTRUDER=255 BED=105 Chamber=0 PRINT_MIN=37,74.8169 PRINT_MAX=261.977,218.183
G90
G21
M83 ; use relative distances for extrusion
; Filament gcode
M106 S0
;LAYER_CHANGE
;Z:0.2
;HEIGHT:0.2
;BEFORE_LAYER_CHANGE
;0.2
G92 E0

G1 E-.8 F1800
;AFTER_LAYER_CHANGE
;0.2
;_SET_FAN_SPEED_CHANGING_LAYER
SET_VELOCITY_LIMIT ACCEL=500 ACCEL_TO_DECEL=250
SET_VELOCITY_LIMIT SQUARE_CORNER_VELOCITY=9
; printing object white extrude id:2 copy 0
EXCLUDE_OBJECT_START NAME=white_extrude_id_2_copy_0
G1 Z.4 F21000
G1 X40.876 Y81.771
G1 Z.4
G1 Z.2
G1 E.8 F1800
;TYPE:Outer wall
;WIDTH:0.457848
G1 F3000
G1 X40.461 Y81.771 E.01326
G1 X40.461 Y77.121 E.14855
G1 X40.876 Y77.121 E.01326
G1 X40.876 Y81.731 E.14727
G1 E-.56 F1800
;WIPE_START
G1 F3000
G1 X40.461 Y81.771 E-.10004
G1 X40.461 Y81.188 E-.13996
;WIPE_END
G1 Z.6 F21000
G1 X38.057 Y77.861 Z.6
G1 Z.2
G1 E.8 F1800
;WIDTH:0.571524
G1 F3000
G1 X38.173 Y77.735 E.00697
G1 X37.675 Y77.869 F21000
;WIDTH:0.577801
G1 F3000
G1 X37.826 Y77.913 E.00648
;WIDTH:0.573637
G1 X38.057 Y77.861 E.00967
G1 X37.883 Y78.054 E.01061
G1 X37.786 Y78.294 E.01057
;WIDTH:0.538335
G1 X37.688 Y78.534 E.00987
;WIDTH:0.503033
G1 X37.661 Y78.797 E.00939
;WIDTH:0.476863
G1 X37.633 Y79.061 E.00885
;WIDTH:0.450692
G1 X37.633 Y81.775 E.08521
M73 P1 R3
G1 X37.225 Y81.775 E.0128
G1 X37.225 Y79.019 E.08653
;WIDTH:0.493062
G1 X37.247 Y78.715 E.01054
;WIDTH:0.535432
G1 X37.268 Y78.412 E.01153
;WIDTH:0.577801
G1 X37.289 Y78.108 E.01253
G1 X37.264 Y77.949 E.00666
;WIDTH:0.528278
G1 X37.239 Y77.789 E.00604
;WIDTH:0.478755
G1 X37.215 Y77.629 E.00542
;WIDTH:0.429232
G1 X37.215 Y77.107 E.01553
G1 X37.601 Y77.107 E.01149
G1 X37.601 Y77.629 E.01553
;WIDTH:0.478755
G1 X37.626 Y77.709 E.00281
;WIDTH:0.528278
G1 X37.65 Y77.789 E.00312
;WIDTH:0.577801
G1 X37.663 Y77.831 E.0018
G1 X38.173 Y77.735 F21000
;WIDTH:0.571524
G1 F3000
G1 X38.25 Y77.6 E.00636
;WIDTH:0.52196
G1 X38.328 Y77.464 E.00576
;WIDTH:0.472396
G1 X38.675 Y77.149 E.01551
;WIDTH:0.471748
G1 X38.966 Y77.052 E.01015
G1 X39.249 Y77.022 E.00938
G1 X39.249 Y77.469 E.01478
G1 X38.865 Y77.495 E.01271
;WIDTH:0.487002
G1 X38.634 Y77.575 E.00835
;WIDTH:0.529263
G1 X38.404 Y77.655 E.00914
;WIDTH:0.571524
G1 X38.211 Y77.722 E.00831
G1 E-.56 F1800
;WIPE_START
G1 F3000
G1 X38.25 Y77.6 E-.03091
G1 X38.328 Y77.464 E-.03748
G1 X38.675 Y77.149 E-.11255
G1 X38.908 Y77.071 E-.05906
;WIPE_END
G1 Z.6 F21000
G1 X40.461 Y75.727 Z.6
G1 Z.2
G1 E.8 F1800
;WIDTH:0.457848
G1 F3000
G1 X40.461 Y75.209 E.01658
G1 X40.876 Y75.209 E.01326
G1 X40.876 Y75.727 E.01658
G1 X40.501 Y75.727 E.01198
G1 E-.56 F1800
;WIPE_START
G1 F3000
G1 X40.461 Y75.209 E-.1249
G1 X40.876 Y75.209 E-.09958
G1 X40.876 Y75.273 E-.01551
;WIPE_END
G1 Z.6 F21000
G1 X45.768 Y78.381 Z.6
G1 Z.2
G1 E.8 F1800
;WIDTH:0.442242
G1 F3000
G1 X45.727 Y78.235 E.00466
;WIDTH:0.456852
G1 X45.56 Y77.874 E.01268
G1 X45.259 Y77.548 E.01413
;WIDTH:0.434365
G1 X44.809 Y77.365 E.01465
;WIDTH:0.413361
G1 X44.214 Y77.333 E.017
;WIDTH:0.411041
G1 X43.744 Y77.449 E.01371
;WIDTH:0.433096
G1 X43.333 Y77.737 E.01508
;WIDTH:0.453909
G1 X43.049 Y78.124 E.01519
;WIDTH:0.473124
G1 X42.862 Y78.592 E.01668
;WIDTH:0.475065
G1 X42.744 Y79.399 E.02714
G1 X42.763 Y80.005 E.02019
;WIDTH:0.474939
G1 X42.884 Y80.519 E.01756
;WIDTH:0.458197
G1 X43.157 Y81.056 E.01924
;WIDTH:0.43881
G1 X43.351 Y81.273 E.00888
;WIDTH:0.415555
G1 X43.643 Y81.465 E.01002
;WIDTH:0.40785
G1 X44.07 Y81.587 E.01247
;WIDTH:0.39143
G1 X44.575 Y81.581 E.01358
;WIDTH:0.397987
G1 X45.031 Y81.436 E.01308
;WIDTH:0.427774
G1 X45.398 Y81.143 E.01391
;WIDTH:0.440977
G1 X45.649 Y80.75 E.01429
G1 X45.761 Y80.408 E.01102
;WIDTH:0.43874
G1 X46.169 Y80.408 E.01242
G1 X46.042 Y80.824 E.01325
;WIDTH:0.441541
G1 X45.826 Y81.233 E.0142
G1 X45.58 Y81.506 E.01126
;WIDTH:0.431562
G1 X45.152 Y81.77 E.01506
;WIDTH:0.397987
G1 X44.644 Y81.914 E.01443
;WIDTH:0.387007
G1 X44.115 Y81.935 E.01403
;WIDTH:0.395387
M73 P2 R3
G1 X43.625 Y81.835 E.01358
;WIDTH:0.416375
G1 X43.193 Y81.623 E.01381
;WIDTH:0.422797
G1 X42.934 Y81.384 E.01032
;WIDTH:0.465146
G1 X42.606 Y80.915 E.01862
G1 X42.467 Y80.591 E.01145
;WIDTH:0.477196
G1 X42.34 Y80.101 E.01692
;WIDTH:0.483364
G1 X42.304 Y79.57 E.01807
;WIDTH:0.488386
G1 X42.35 Y78.958 E.02105
G1 X42.457 Y78.451 E.01776
;WIDTH:0.472365
G1 X42.681 Y77.943 E.01837
;WIDTH:0.454951
G1 X42.984 Y77.539 E.01603
;WIDTH:0.433951
G1 X43.372 Y77.226 E.015
;WIDTH:0.42972
G1 X43.738 Y77.056 E.01203
;WIDTH:0.416908
G1 X44.213 Y76.965 E.01392
;WIDTH:0.413361
G1 X44.884 Y77.003 E.01919
;WIDTH:0.42702
G1 X45.36 Y77.163 E.01482
;WIDTH:0.452969
G1 X45.697 Y77.396 E.01296
G1 X45.854 Y77.577 E.00756
;WIDTH:0.450258
G1 X46.043 Y77.946 E.01299
;WIDTH:0.442242
G1 X46.172 Y78.381 E.01395
G1 X45.808 Y78.381 E.01119
G1 E-.56 F1800
;WIPE_START
G1 F3000
G1 X45.727 Y78.235 E-.04006
G1 X45.56 Y77.874 E-.09546
G1 X45.264 Y77.554 E-.10448
;WIPE_END
G1 Z.6 F21000
G1 X48.059 Y79.334 Z.6
G1 Z.2
G1 E.8 F1800
;WIDTH:0.472362
G1 F3000
G1 X48.115 Y79.313 E.00198
;WIDTH:0.426387
G1 X48.171 Y79.292 E.00177
;WIDTH:0.3833
G1 X48.469 Y79 E.01094
;WIDTH:0.425853
G1 X48.58 Y78.918 E.00405
;WIDTH:0.468405
G1 X48.691 Y78.837 E.0045
;WIDTH:0.510957
G1 X48.802 Y78.756 E.00495
G1 X48.886 Y78.644 E.00506
;WIDTH:0.470124
G1 X48.97 Y78.531 E.00462
;WIDTH:0.429291
G1 X49.053 Y78.418 E.00418
;WIDTH:0.402354
G1 X50.386 Y77.094 E.052
G1 X50.903 Y77.094 E.01431
G1 X49.296 Y78.664 E.06219
;WIDTH:0.429291
G1 X49.261 Y78.728 E.00215
;WIDTH:0.470124
G1 X49.227 Y78.791 E.00238
;WIDTH:0.510957
G1 X49.192 Y78.855 E.00261
G1 X49.266 Y78.95 E.00434
;WIDTH:0.479892
G1 X51.067 Y81.76 E.11229
G1 X50.546 Y81.76 E.0175
G1 X48.917 Y79.133 E.104
;WIDTH:0.448837
G1 X48.812 Y79.188 E.00372
;WIDTH:0.416069
G1 X48.707 Y79.243 E.00342
;WIDTH:0.3833
G1 X48.423 Y79.516 E.0103
;WIDTH:0.424485
G1 X48.316 Y79.585 E.00373
;WIDTH:0.471094
G1 X48.21 Y79.654 E.00419
;WIDTH:0.517703
G1 X48.103 Y79.723 E.00465
;WIDTH:0.564312
G1 X47.996 Y79.792 E.0051
G1 X47.957 Y79.848 E.00276
;WIDTH:0.535352
G1 X47.918 Y79.905 E.00261
;WIDTH:0.506391
G1 X47.9 Y79.989 E.00307
;WIDTH:0.470196
G1 X47.882 Y80.074 E.00283
;WIDTH:0.434
G1 X47.882 Y81.783 E.05148
G1 X47.491 Y81.783 E.01178
G1 X47.491 Y80.074 E.05148
;WIDTH:0.477438
G1 X47.513 Y79.916 E.0053
;WIDTH:0.520875
G1 X47.534 Y79.759 E.00583
;WIDTH:0.564312
G1 X47.556 Y79.602 E.00636
G1 X47.534 Y79.452 E.0061
;WIDTH:0.520875
G1 X47.513 Y79.301 E.0056
;WIDTH:0.477438
G1 X47.491 Y79.151 E.00509
;WIDTH:0.434
G1 X47.491 Y75.197 E.11907
G1 X47.882 Y75.197 E.01178
G1 X47.882 Y79.151 E.11907
;WIDTH:0.477438
G1 X47.904 Y79.226 E.00262
;WIDTH:0.520875
G1 X47.925 Y79.301 E.00288
;WIDTH:0.564312
G1 X47.947 Y79.377 E.00314
G1 X48.003 Y79.355 E.0024
;WIDTH:0.518337
G1 X48.022 Y79.348 E.00072
G1 E-.56 F1800
;WIPE_START
G1 F3000
G1 X48.115 Y79.313 E-.02395
G1 X48.171 Y79.292 E-.01435
G1 X48.469 Y79 E-.10022
M73 P3 R3
G1 X48.58 Y78.918 E-.03299
G1 X48.691 Y78.837 E-.03299
G1 X48.802 Y78.756 E-.03299
G1 X48.808 Y78.748 E-.0025
;WIPE_END
G1 Z.6 F21000
G1 X59.33 Y81.08 Z.6
G1 Z.2
G1 E.8 F1800
;WIDTH:0.547718
G1 F3000
G1 X58.744 Y81.425 E.02645
;WIDTH:0.556044
G1 X58.131 Y81.664 E.02598
G1 X57.231 Y81.871 E.03649
;WIDTH:0.54347
G1 X56.69 Y81.904 E.02089
;WIDTH:0.583688
G1 X56.097 Y81.873 E.02472
G1 X55.488 Y81.782 E.02564
G1 X55.003 Y81.632 E.02114
;WIDTH:0.580724
G1 X54.606 Y81.45 E.01808
;WIDTH:0.598066
G1 X54.013 Y81.036 E.03093
G1 X53.648 Y80.648 E.02277
;WIDTH:0.616878
G1 X53.247 Y80.002 E.03359
;WIDTH:0.639612
G1 X53.059 Y79.48 E.0255
;WIDTH:0.669302
G1 X52.98 Y78.945 E.0261
G1 E-.56 F1800
;WIPE_START
G1 F3000
G1 X53.059 Y79.48 E-.12986
G1 X53.214 Y79.912 E-.11014
;WIPE_END
G1 Z.6 F21000
G1 X55.857 Y77.068 Z.6
G1 Z.2
G1 E.8 F1800
;WIDTH:0.625084
G1 F3000
G1 X56.058 Y76.945 E.01055
;WIDTH:0.594935
G1 X56.258 Y76.822 E.01001
;WIDTH:0.564786
G1 X56.477 Y76.779 E.00896
;WIDTH:0.525749
G1 X56.696 Y76.737 E.00829
;WIDTH:0.486712
G1 X56.874 Y76.768 E.00617
;WIDTH:0.459981
G1 X57.052 Y76.8 E.0058
;WIDTH:0.43325
G1 X57.257 Y76.912 E.00702
;WIDTH:0.39598
G1 X57.482 Y77.164 E.00919
;WIDTH:0.38292
G1 X57.576 Y77.374 E.00603
G1 E-.56 F1800
;WIPE_START
G1 F3000
G1 X57.482 Y77.164 E-.05525
G1 X57.257 Y76.912 E-.08112
G1 X57.052 Y76.8 E-.05606
G1 X56.874 Y76.768 E-.04335
G1 X56.857 Y76.765 E-.00422
;WIPE_END
G1 Z.6 F21000
G1 X55.848 Y80.071 Z.6
G1 Z.2
G1 E.8 F1800
;WIDTH:0.590506
G1 F3000
G1 X55.768 Y80.069 E.00334
;WIDTH:0.549196
G1 X55.689 Y80.066 E.00309
;WIDTH:0.507885
G1 X55.61 Y80.064 E.00284
;WIDTH:0.466574
G1 X55.531 Y80.062 E.00259
;WIDTH:0.425263
G1 X55.451 Y80.06 E.00233
;WIDTH:0.383952
G1 X55.315 Y79.996 E.00394
;WIDTH:0.399282
G1 X54.991 Y79.585 E.01437
;WIDTH:0.422952
G1 X54.853 Y79.089 E.01504
;WIDTH:0.424917
G1 X54.859 Y78.585 E.01485
G1 X54.953 Y78.135 E.0135
;WIDTH:0.41392
G1 X55.194 Y77.614 E.01639
;WIDTH:0.395811
G1 X55.458 Y77.258 E.01206
;WIDTH:0.410457
G1 X55.525 Y77.226 E.00208
;WIDTH:0.453382
G1 X55.591 Y77.194 E.00233
;WIDTH:0.496308
G1 X55.658 Y77.163 E.00257
;WIDTH:0.539233
G1 X55.724 Y77.131 E.00281
;WIDTH:0.582159
G1 X55.791 Y77.1 E.00306
;WIDTH:0.625084
G1 X55.857 Y77.068 E.0033
G1 X55.832 Y77.133 E.00313
;WIDTH:0.581976
G1 X55.807 Y77.199 E.0029
;WIDTH:0.538867
G1 X55.782 Y77.264 E.00267
;WIDTH:0.495758
G1 X55.757 Y77.329 E.00243
;WIDTH:0.452649
G1 X55.732 Y77.394 E.0022
;WIDTH:0.40954
G1 X55.516 Y77.757 E.01192
;WIDTH:0.412542
G1 X55.284 Y78.324 E.01742
G1 X55.215 Y78.871 E.01571
;WIDTH:0.409214
G1 X55.288 Y79.367 E.01414
G1 X55.533 Y79.749 E.01278
;WIDTH:0.415006
G1 X55.596 Y79.813 E.00258
;WIDTH:0.458881
G1 X55.659 Y79.878 E.00288
;WIDTH:0.502756
G1 X55.722 Y79.942 E.00319
;WIDTH:0.546631
G1 X55.785 Y80.007 E.00349
;WIDTH:0.590506
G1 X55.82 Y80.042 E.00211
M73 P4 R3
G1 E-.56 F1800
;WIPE_START
G1 F3000
G1 X55.768 Y80.069 E-.01384
G1 X55.689 Y80.066 E-.01903
G1 X55.61 Y80.064 E-.01903
G1 X55.531 Y80.062 E-.01903
G1 X55.451 Y80.06 E-.01903
G1 X55.315 Y79.996 E-.03603
G1 X55.021 Y79.623 E-.11402
;WIPE_END
G1 Z.6 F21000
G1 X57.179 Y79.401 Z.6
G1 Z.2
G1 E.8 F1800
;WIDTH:0.412096
G1 F3000
G1 X56.855 Y79.784 E.01425
;WIDTH:0.44013
G1 X56.668 Y79.896 E.00666
;WIDTH:0.468164
G1 X56.482 Y80.009 E.00713
;WIDTH:0.508168
G1 X56.295 Y80.047 E.00681
;WIDTH:0.548172
G1 X56.109 Y80.085 E.0074
;WIDTH:0.590506
G1 X55.848 Y80.071 E.01104
G1 E-.56 F1800
;WIPE_START
G1 F3000
G1 X56.109 Y80.085 E-.06282
G1 X56.295 Y80.047 E-.04566
G1 X56.482 Y80.009 E-.04566
G1 X56.668 Y79.896 E-.05229
G1 X56.788 Y79.824 E-.03357
;WIPE_END
G1 Z.6 F21000
G1 X57.945 Y77.334 Z.6
G1 Z.2
G1 E.8 F1800
;WIDTH:0.357784
G1 F3000
G1 X58.099 Y76.827 E.01284
;WIDTH:0.357324
G1 X58.427 Y76.827 E.00794
;WIDTH:0.357784
G1 X58.246 Y77.425 E.01515
;WIDTH:0.403085
G1 X58.176 Y77.58 E.00472
;WIDTH:0.448386
G1 X58.106 Y77.735 E.00531
G1 X58.058 Y77.942 E.00664
;WIDTH:0.419525
G1 X58.011 Y78.149 E.00617
;WIDTH:0.418338
G1 X57.703 Y79.207 E.03183
G1 X57.757 Y79.432 E.00669
;WIDTH:0.373341
G1 X57.81 Y79.657 E.00589
;WIDTH:0.35264
G1 X57.95 Y79.82 E.00511
G1 X58.229 Y79.917 E.00705
;WIDTH:0.327074
G1 X58.536 Y79.898 E.00671
;WIDTH:0.312449
G1 X59.002 Y79.7 E.01051
;WIDTH:0.312048
G1 X59.238 Y79.503 E.00637
;WIDTH:0.319728
G1 X59.529 Y79.144 E.00986
;WIDTH:0.337116
G1 X59.776 Y78.603 E.01346
;WIDTH:0.342246
G1 X59.869 Y78.208 E.00935
;WIDTH:0.353546
G1 X59.883 Y77.928 E.00672
G1 X59.873 Y77.348 E.01387
;WIDTH:0.331387
G1 X59.709 Y76.731 E.01419
;WIDTH:0.3242
G1 X59.388 Y76.202 E.01339
;WIDTH:0.316347
G1 X58.921 Y75.782 E.01323
;WIDTH:0.296623
G1 X58.583 Y75.576 E.00773
G1 X58.04 Y75.371 E.01134
;WIDTH:0.287662
G1 X57.174 Y75.232 E.01652
;WIDTH:0.302439
G1 X56.577 Y75.232 E.01195
;WIDTH:0.307716
G1 X56.161 Y75.272 E.0085
G1 X55.531 Y75.388 E.01308
;WIDTH:0.303639
G1 X54.827 Y75.672 E.01524
;WIDTH:0.303773
G1 X54.263 Y76.06 E.01374
;WIDTH:0.322112
G1 X53.986 Y76.33 E.00831
;WIDTH:0.340733
G1 X53.6 Y76.854 E.01493
;WIDTH:0.353379
G1 X53.371 Y77.318 E.01237
;WIDTH:0.356392
G1 X53.182 Y77.934 E.01554
G1 X53.121 Y78.562 E.01523
;WIDTH:0.400252
G1 X53.101 Y78.616 E.0016
;WIDTH:0.445094
G1 X53.081 Y78.671 E.00181
;WIDTH:0.489936
G1 X53.061 Y78.726 E.00201
;WIDTH:0.534777
G1 X53.04 Y78.781 E.00221
;WIDTH:0.579619
G1 X53.02 Y78.835 E.00241
;WIDTH:0.624461
G1 X53 Y78.89 E.00261
